X: 3
T: Bruise The Pease
M: 6/8
L: 1/8
R: jig
K: Edor
|: EBA G3 | B2 A G3 | EBA G2 A | B2 A BGE |
B2 A G3 | B2 A G2 F | EFE d2 B | e2 B AFD :|
|: B2 e e3 | fed e3 | B2 e e2 f | g2 e fdB |
[1 B2 c d3 | cec d3 | B2 c d2 e | f2 e dBA :|
[2 e2 c d2 B | (4BdBA G2 F | EFE d2 B | e2 B AFD |]
